prototype/04-socket-without-vite/public/assets/img/step2_phones.svg

<svg fill="none" viewBox="0 0 351 251" xmlns="http://www.w3.org/2000/svg">
<path d="m142.88 185.92v0.049m117.85 33.517c1.017-0.011 2.09 1e-3 3.166 0.029 5.613 0.144 9.011-3.378 8.884-8.991-0.026-1.128-0.015-2.235 0.054-3.244 0.223-3.253 1.196-5.649 1.196-8.262 0-3.326-0.25-6.667-0.623-9.953-0.156-1.377-0.573-2.659-0.573-4.041 0-1.695 0.137-3.381 0.184-5.075 0.062-2.211-0.092-4.429-0.092-6.637 0-2.303-0.066-6.969-0.086-8.355-4e-3 -0.265 0-0.523 0.014-0.788 0.021-0.421 0.057-1.154 0.102-2.062 0.295-5.974-3.891-9.956-9.869-9.778-0.812 0.024-1.607 0.034-2.357 0.025-3.29-0.042-5.595-0.722-8.424-0.856-2.023-0.095-4.049-0.191-6.08-0.252-5.498-0.168-11.059-0.098-16.572-0.098-7.017 0-14.064 0.253-20.997 0.629-2.904 0.157-5.609 0.577-8.525 0.577-3.575 0-7.132-0.138-10.705-0.186-4.666-0.062-9.344 0.093-14.002 0.093-5.745 0-11.377-0.379-17.111-0.459-5.377-0.075-14.513-0.059-14.979-0.058h-0.042v0c-6.137-0.02-12.423 6.361-12.1 12.49 6e-3 0.118 0.012 0.227 0.018 0.326 0.167 2.606-0.014 5.649-0.014 8.262 0 3.326-0.251 6.667-0.623 9.954-0.157 1.376-0.573 2.658-0.573 4.04 0 1.695 0.137 3.381 0.184 5.075 0.061 2.212-0.092 4.429-0.092 6.637 0 2.723 0.921 5.312 1.118 8.752 0.016 0.265 0.028 0.536 0.037 0.811 0.208 6.299 5.678 11.653 11.975 11.399v0c0.439-0.018 0.31 0.016 0.748 0.051 1.559 0.126 5.53 0.416 7.769 0.31 2.023-0.095 4.049-0.191 6.08-0.252 5.498-0.168 11.058-0.098 16.572-0.098 7.016 0 14.063 0.252 20.997 0.628 2.904 0.158 5.609 0.578 8.524 0.578 3.576 0 7.133-0.138 10.706-0.186 4.666-0.062 9.344 0.093 14.002 0.093 5.745 0 11.376-0.379 17.111-0.459 5.518-0.077 9.482-0.607 14.998-0.669z" stroke="#111010" stroke-linecap="round" stroke-width="2"/>
<path d="m314.92 118.85h-0.049m-33.517 117.85c0.011 1.017-1e-3 2.091-0.029 3.167-0.143 5.613 3.378 9.011 8.991 8.884 1.128-0.026 2.235-0.015 3.244 0.054 3.253 0.223 5.649 1.196 8.262 1.196 3.326 0 6.667-0.251 9.953-0.624 1.377-0.156 2.659-0.572 4.041-0.572 1.695 0 3.381 0.137 5.075 0.184 2.212 0.061 4.429-0.092 6.637-0.092 2.303 0 6.969-0.066 8.355-0.086 0.265-4e-3 0.523 0 0.788 0.013 0.421 0.021 1.154 0.058 2.062 0.103 5.974 0.294 9.956-3.892 9.778-9.87-0.024-0.811-0.034-1.606-0.025-2.357 0.042-3.289 0.723-5.594 0.856-8.424 0.095-2.022 0.191-4.049 0.253-6.079 0.167-5.499 0.097-11.059 0.097-16.572 0-7.017-0.252-14.064-0.628-20.998-0.158-2.904-0.578-5.609-0.578-8.524 0-3.575 0.138-7.133 0.186-10.705 0.062-4.666-0.093-9.344-0.093-14.003 0-5.744 0.379-11.376 0.459-17.111 0.075-5.376 0.059-14.512 0.059-14.979v-0.041 0c0.019-6.137-6.362-12.424-12.491-12.101-0.118 7e-3 -0.227 0.013-0.326 0.019-2.606 0.166-5.649-0.014-8.262-0.014-3.326 0-6.667-0.251-9.953-0.624-1.377-0.156-2.659-0.572-4.041-0.572-1.695 0-3.381 0.137-5.075 0.184-2.211 0.061-4.429-0.092-6.637-0.092-2.723 0-5.312 0.921-8.752 1.118-0.265 0.015-0.536 0.027-0.811 0.036-6.299 0.209-11.653 5.678-11.399 11.976v0c0.018 0.439-0.016 0.31-0.051 0.747-0.126 1.56-0.416 5.53-0.31 7.77 0.095 2.023 0.191 4.049 0.253 6.079 0.167 5.499 0.098 11.059 0.098 16.573 0 7.016-0.253 14.063-0.629 20.997-0.158 2.904-0.578 5.609-0.578 8.524 0 3.575 0.138 7.133 0.186 10.705 0.062 4.666-0.093 9.344-0.093 14.003 0 5.745 0.379 11.376 0.459 17.111 0.077 5.518 0.608 9.482 0.669 14.997z" stroke="#111010" stroke-linecap="round" stroke-width="2"/>
<path d="m239.24 13.88h-0.049m-33.518 117.85c0.012 1.017-1e-3 2.09-0.028 3.166-0.144 5.613 3.378 9.011 8.991 8.884 1.128-0.026 2.235-0.015 3.243 0.054 3.253 0.223 5.649 1.196 8.263 1.196 3.326 0 6.666-0.25 9.953-0.623 1.377-0.156 2.659-0.573 4.041-0.573 1.695 0 3.381 0.137 5.074 0.184 2.212 0.062 4.429-0.092 6.638-0.092 2.302 0 6.969-0.066 8.355-0.086 0.265-4e-3 0.522 0 0.787 0.014 0.421 0.021 1.155 0.057 2.063 0.102 5.973 0.295 9.955-3.891 9.778-9.869-0.024-0.812-0.035-1.607-0.025-2.357 0.041-3.29 0.722-5.595 0.855-8.424 0.096-2.023 0.191-4.049 0.253-6.08 0.168-5.498 0.098-11.059 0.098-16.572 0-7.0167-0.253-14.064-0.629-20.997-0.157-2.904-0.577-5.6089-0.577-8.5242 0-3.5756 0.138-7.1327 0.185-10.706 0.062-4.6659-0.093-9.3439-0.093-14.002 0-5.7448 0.379-11.376 0.459-17.111 0.075-5.3764 0.06-14.512 0.059-14.979v-0.0411 0c0.019-6.1371-6.361-12.424-12.49-12.101-0.119 0.00624-0.228 0.01251-0.326 0.01879-2.606 0.16609-5.649-0.01419-8.263-0.01419-3.326 0-6.666-0.25082-9.953-0.62369-1.376-0.15618-2.659-0.57257-4.041-0.57257-1.694 0-3.381 0.13704-5.074 0.18404-2.212 0.06138-4.429-0.09202-6.638-0.09202-2.723 0-5.311 0.92094-8.752 1.1184-0.264 0.01519-0.535 0.02719-0.81 0.03629-6.3 0.20827-11.653 5.6779-11.399 11.975v0c0.017 0.4388-0.016 0.3096-0.051 0.7474-0.126 1.5593-0.416 5.5301-0.311 7.7693 0.096 2.0229 0.191 4.0489 0.253 6.0798 0.168 5.4982 0.098 11.059 0.098 16.572 0 7.0165-0.253 14.064-0.629 20.997-0.157 2.904-0.577 5.609-0.577 8.5242 0 3.5756 0.138 7.1327 0.185 10.706 0.062 4.666-0.092 9.3439-0.092 14.002 0 5.745 0.378 11.376 0.458 17.111 0.077 5.518 0.608 9.482 0.669 14.998z" stroke="#111010" stroke-linecap="round" stroke-width="2"/>
<path d="m264.99 138.02c-0.546 0-1.063-9e-3 -1.597 0.144-0.806 0.229-1.548 0.072-2.353 0.048-2.055-0.064-4.089-0.214-6.145-0.293-2.135-0.083-4.233-0.474-6.373-0.474-1.735 0-3.477 0.16-5.215 0.096-1.33-0.049-2.655-0.191-3.987-0.191-1.086 0-2.093 0.433-3.175 0.595-2.582 0.389-5.207 0.65-7.82 0.65-2.054 0-4.125 0.071-6.172-0.102-0.757-0.063-1.511-0.162-2.265-0.26-1.054-0.138-2.115-0.111-3.165-0.234-0.221-0.026-0.82 0.069-1.065 0.139-0.414 0.118-3.105 0.235-3.416 0.095" stroke="#CF1A1A" stroke-linecap="round" stroke-width="3"/>
<path d="m264.99 156.67c-0.546 0-1.063-8e-3 -1.597 0.144-0.806 0.229-1.548 0.073-2.353 0.048-2.055-0.063-4.089-0.213-6.145-0.293-2.135-0.082-4.233-0.473-6.373-0.473-1.735 0-3.477 0.159-5.215 0.096-1.33-0.049-2.655-0.192-3.987-0.192-1.086 0-2.093 0.433-3.175 0.596-2.582 0.388-5.207 0.649-7.82 0.649-2.054 0-4.125 0.072-6.172-0.101-0.757-0.064-1.511-0.162-2.265-0.261-1.054-0.138-2.115-0.11-3.165-0.234-0.221-0.026-0.82 0.069-1.065 0.139-0.414 0.118-3.105 0.236-3.416 0.095" stroke="#CF1A1A" stroke-linecap="round" stroke-width="3"/>
<path d="m61.51 205.6c0-0.429 0.0089-0.834-0.1476-1.254-0.2358-0.876-0.0747-1.724-0.0492-2.601 0.065-2.235 0.219-4.449 0.3006-6.686 0.0848-2.324 0.4865-4.606 0.4865-6.934 0-1.888-0.164-3.784-0.0984-5.675 0.0503-1.448 0.1969-2.89 0.1969-4.339 0-1.181-0.4453-2.277-0.6123-3.454-0.3987-2.81 0.5138-7.634 0.5138-10.477m-0.5487 41.42c0.4144-0.109 1.5257-0.804 1.8922-1.061 0.552-0.388 1.1565-0.38 1.7751-0.516 1.577-0.345 3.1617-0.601 4.7437-0.931 1.6439-0.342 3.3391-0.371 4.9645-0.796 1.318-0.345 2.6-0.85 3.9368-1.133 1.0884-0.229 0.9066 1.398 0.1757 2.237-0.202 0.232-0.3553 0.426-0.3994 0.516-0.0902 0.185-0.3637 0.58-0.5075 0.68-0.685 0.477-1.2695 1.072-1.9666 1.54-0.4983 0.334-0.9973 0.669-1.4728 1.031-1.2874 0.98-2.4147 2.154-3.5829 3.266-1.4866 1.415-2.7948 3.03-3.9891 4.716-0.5002 0.707-0.7663 1.575-1.384 2.162-0.7576 0.721-1.6123 1.332-2.4039 2.016-1.0339 0.893-1.912 1.955-2.899 2.894-1.445 1.375-2.9914 2.715-4.8713 3.382-0.1789 0.063-0.3167 0.101-0.3891 0.101-0.4284 0-0.834-9e-3 -1.2539 0.148-0.6323 0.235-1.215 0.074-1.8477 0.049-1.6132-0.065-3.2109-0.219-4.8248-0.301-1.6772-0.084-3.3243-0.486-5.0045-0.486-1.3624 0-2.7305 0.164-4.0952 0.098-1.0449-0.05-1.1894-0.197-3.131-0.197-0.3736 0-0.939-0.167-1.6084-0.438-5.0027-2.025-7.6856-7.208-8.7268-12.504-0.3987-2.028-0.6669-4.089-0.6669-6.141 0-1.612-0.0738-3.239 0.1038-4.847 0.0656-0.594 0.1667-1.186 0.2679-1.778 0.1415-0.827 0.1134-1.661 0.2405-2.486 0.0267-0.173-0.0708-0.643-0.1427-0.836-0.1212-0.325-0.2423-2.438-0.0978-2.682m11.925 4.543c0.0656-0.988 0.1667-1.975 0.2679-2.96 0.1415-1.378 0.1133-2.766 0.2405-4.139 0.0267-0.288-0.0708-1.071-0.1427-1.392-0.1212-0.541-0.2424-4.059-0.0978-4.465m13.186-5.191c-0.0656 1.384-0.1667 2.765-0.2679 4.144-0.1415 1.928-0.1133 3.871-0.2405 5.792-0.0267 0.404 0.0708 1.5 0.1427 1.949 0.1212 0.758 0.2424 5.681 0.0978 6.25m59.823-15.863c-1.335-1.335-2.792-2.559-4.083-3.943-0.988-1.059-1.904-2.182-2.928-3.207-0.836-0.835-1.926-1.296-2.8759-2.01-2.269-1.705-5.4536-5.839-7.4644-7.85m0 0c-0.0656 1.384 0.3463 3.278 0.2451 4.657-0.1415 1.928-0.1134 3.871-0.2405 5.792-0.0267 0.403 0.0708 1.5 0.1427 1.949 0.1212 0.757 0.2423 5.681 0.0978 6.249m-0.2451-18.647c1.3841 0.066 2.7649 0.167 4.1436 0.268 1.9284 0.142 3.8711 0.114 5.7927 0.241 0.403 0.026 1.499-0.071 1.949-0.143 0.757-0.121 5.681-0.242 6.249-0.098m-45.832-26.594c1.335 1.335 2.7915 2.56 4.0822 3.943 0.9883 1.06 1.9041 2.183 2.9287 3.207 0.8355 0.836 1.9255 1.296 2.8757 2.01 2.269 1.705 5.4537 5.839 7.4644 7.85m0 0c0.0656-1.384-0.3462-3.278-0.2451-4.656 0.1415-1.929 0.1134-3.872 0.2406-5.793 0.0267-0.403-0.0709-1.499-0.1428-1.949-0.1211-0.757-0.2423-5.681-0.0978-6.249m0.2451 18.647c-1.3841-0.066-2.7649-0.167-4.1435-0.268-1.9285-0.141-3.8712-0.113-5.7924-0.24-0.4033-0.027-1.4995 0.071-1.9489 0.142-0.7575 0.122-5.6813 0.243-6.2494 0.098" stroke="#111010" stroke-linecap="round" stroke-linejoin="round" stroke-width="2"/>
</svg>

<svg width="351" height="251" viewBox="0 0 351 251" fill="none" xmlns="http://www.w3.org/2000/svg">
<path d="M142.88 185.919V185.968M260.729 219.485C261.746 219.474 262.819 219.486 263.895 219.514C269.508 219.658 272.906 216.136 272.779 210.523C272.753 209.395 272.764 208.288 272.833 207.279C273.056 204.026 274.029 201.63 274.029 199.017C274.029 195.691 273.779 192.35 273.406 189.064C273.25 187.687 272.833 186.405 272.833 185.023C272.833 183.328 272.97 181.642 273.017 179.948C273.079 177.737 272.925 175.519 272.925 173.311C272.925 171.008 272.859 166.342 272.839 164.956C272.835 164.691 272.839 164.433 272.853 164.168C272.874 163.747 272.91 163.014 272.955 162.106C273.25 156.132 269.064 152.15 263.086 152.328C262.274 152.352 261.479 152.362 260.729 152.353C257.439 152.311 255.134 151.631 252.305 151.497C250.282 151.402 248.256 151.306 246.225 151.245C240.727 151.077 235.166 151.147 229.653 151.147C222.636 151.147 215.589 151.4 208.656 151.776C205.752 151.933 203.047 152.353 200.131 152.353C196.556 152.353 192.999 152.215 189.426 152.167C184.76 152.105 180.082 152.26 175.424 152.26C169.679 152.26 164.047 151.881 158.313 151.801C152.936 151.726 143.8 151.742 143.334 151.743C143.319 151.743 143.307 151.743 143.292 151.743V151.743C137.155 151.723 130.869 158.104 131.192 164.233C131.198 164.351 131.204 164.46 131.21 164.559C131.377 167.165 131.196 170.208 131.196 172.821C131.196 176.147 130.945 179.488 130.573 182.775C130.416 184.151 130 185.433 130 186.815C130 188.51 130.137 190.196 130.184 191.89C130.245 194.102 130.092 196.319 130.092 198.527C130.092 201.25 131.013 203.839 131.21 207.279C131.226 207.544 131.238 207.815 131.247 208.09C131.455 214.389 136.925 219.743 143.222 219.489V219.489C143.661 219.471 143.532 219.505 143.97 219.54C145.529 219.666 149.5 219.956 151.739 219.85C153.762 219.755 155.788 219.659 157.819 219.598C163.317 219.43 168.877 219.5 174.391 219.5C181.407 219.5 188.454 219.752 195.388 220.128C198.292 220.286 200.997 220.706 203.912 220.706C207.488 220.706 211.045 220.568 214.618 220.52C219.284 220.458 223.962 220.613 228.62 220.613C234.365 220.613 239.996 220.234 245.731 220.154C251.249 220.077 255.213 219.547 260.729 219.485Z" stroke="#111010" stroke-width="2" stroke-linecap="round"/>
<path d="M314.919 118.851L314.87 118.851M281.353 236.699C281.364 237.716 281.352 238.79 281.324 239.866C281.181 245.479 284.702 248.877 290.315 248.75C291.443 248.724 292.55 248.735 293.559 248.804C296.812 249.027 299.208 250 301.821 250C305.147 250 308.488 249.749 311.774 249.376C313.151 249.22 314.433 248.804 315.815 248.804C317.51 248.804 319.196 248.941 320.89 248.988C323.102 249.049 325.319 248.896 327.527 248.896C329.83 248.896 334.496 248.83 335.882 248.81C336.147 248.806 336.405 248.81 336.67 248.823C337.091 248.844 337.824 248.881 338.732 248.926C344.706 249.22 348.688 245.034 348.51 239.056C348.486 238.245 348.476 237.45 348.485 236.699C348.527 233.41 349.208 231.105 349.341 228.275C349.436 226.253 349.532 224.226 349.594 222.196C349.761 216.697 349.691 211.137 349.691 205.624C349.691 198.607 349.439 191.56 349.063 184.626C348.905 181.722 348.485 179.017 348.485 176.102C348.485 172.527 348.623 168.969 348.671 165.397C348.733 160.731 348.578 156.053 348.578 151.394C348.578 145.65 348.957 140.018 349.037 134.283C349.112 128.907 349.096 119.771 349.096 119.304C349.096 119.289 349.096 119.278 349.096 119.263V119.263C349.115 113.126 342.734 106.839 336.605 107.162C336.487 107.169 336.378 107.175 336.279 107.181C333.673 107.347 330.63 107.167 328.017 107.167C324.691 107.167 321.35 106.916 318.064 106.543C316.687 106.387 315.405 105.971 314.023 105.971C312.328 105.971 310.642 106.108 308.948 106.155C306.737 106.216 304.519 106.063 302.311 106.063C299.588 106.063 296.999 106.984 293.559 107.181C293.294 107.196 293.023 107.208 292.748 107.217C286.449 107.426 281.095 112.895 281.349 119.193V119.193C281.367 119.632 281.333 119.503 281.298 119.94C281.172 121.5 280.882 125.47 280.988 127.71C281.083 129.733 281.179 131.759 281.241 133.789C281.408 139.288 281.339 144.848 281.339 150.362C281.339 157.378 281.086 164.425 280.71 171.359C280.552 174.263 280.132 176.968 280.132 179.883C280.132 183.458 280.27 187.016 280.318 190.588C280.38 195.254 280.225 199.932 280.225 204.591C280.225 210.336 280.604 215.967 280.684 221.702C280.761 227.22 281.292 231.184 281.353 236.699Z" stroke="#111010" stroke-width="2" stroke-linecap="round"/>
<path d="M239.243 13.88L239.194 13.88M205.676 131.729C205.688 132.746 205.675 133.819 205.648 134.895C205.504 140.508 209.026 143.906 214.639 143.779C215.767 143.753 216.874 143.764 217.882 143.833C221.135 144.056 223.531 145.029 226.145 145.029C229.471 145.029 232.811 144.779 236.098 144.406C237.475 144.25 238.757 143.833 240.139 143.833C241.834 143.833 243.52 143.97 245.213 144.017C247.425 144.079 249.642 143.925 251.851 143.925C254.153 143.925 258.82 143.859 260.206 143.839C260.471 143.835 260.728 143.839 260.993 143.853C261.414 143.874 262.148 143.91 263.056 143.955C269.029 144.25 273.011 140.064 272.834 134.086C272.81 133.274 272.799 132.479 272.809 131.729C272.85 128.439 273.531 126.134 273.664 123.305C273.76 121.282 273.855 119.256 273.917 117.225C274.085 111.727 274.015 106.166 274.015 100.653C274.015 93.6363 273.762 86.5893 273.386 79.6556C273.229 76.7516 272.809 74.0467 272.809 71.1314C272.809 67.5558 272.947 63.9987 272.994 60.4259C273.056 55.76 272.901 51.082 272.901 46.4236C272.901 40.6788 273.28 35.0471 273.36 29.3125C273.435 23.9361 273.42 14.8 273.419 14.3335C273.419 14.3185 273.419 14.3074 273.419 14.2924V14.2924C273.438 8.15534 267.058 1.86862 260.929 2.19166C260.81 2.1979 260.701 2.20417 260.603 2.21045C257.997 2.37654 254.954 2.19626 252.34 2.19626C249.014 2.19626 245.674 1.94544 242.387 1.57257C241.011 1.41639 239.728 1 238.346 1C236.652 1 234.965 1.13704 233.272 1.18404C231.06 1.24542 228.843 1.09202 226.634 1.09202C223.911 1.09202 221.323 2.01296 217.882 2.21045C217.618 2.22564 217.347 2.23764 217.072 2.24674C210.772 2.45501 205.419 7.92464 205.673 14.2222V14.2222C205.69 14.661 205.657 14.5318 205.622 14.9696C205.496 16.5289 205.206 20.4997 205.311 22.7389C205.407 24.7618 205.502 26.7878 205.564 28.8187C205.732 34.3169 205.662 39.8774 205.662 45.3908C205.662 52.4073 205.409 59.4543 205.033 66.388C204.876 69.292 204.456 71.997 204.456 74.9122C204.456 78.4878 204.594 82.0449 204.641 85.6177C204.703 90.2837 204.549 94.9616 204.549 99.62C204.549 105.365 204.927 110.996 205.007 116.731C205.084 122.249 205.615 126.213 205.676 131.729Z" stroke="#111010" stroke-width="2" stroke-linecap="round"/>
<path d="M264.99 138.021C264.444 138.021 263.927 138.012 263.393 138.165C262.587 138.394 261.845 138.237 261.04 138.213C258.985 138.149 256.951 137.999 254.895 137.92C252.76 137.837 250.662 137.446 248.522 137.446C246.787 137.446 245.045 137.606 243.307 137.542C241.977 137.493 240.652 137.351 239.32 137.351C238.234 137.351 237.227 137.784 236.145 137.946C233.563 138.335 230.938 138.596 228.325 138.596C226.271 138.596 224.2 138.667 222.153 138.494C221.396 138.431 220.642 138.332 219.888 138.234C218.834 138.096 217.773 138.123 216.723 138C216.502 137.974 215.903 138.069 215.658 138.139C215.244 138.257 212.553 138.374 212.242 138.234" stroke="#CF1A1A" stroke-width="3" stroke-linecap="round"/>
<path d="M264.99 156.67C264.444 156.67 263.927 156.662 263.393 156.814C262.587 157.043 261.845 156.887 261.04 156.862C258.985 156.799 256.951 156.649 254.895 156.569C252.76 156.487 250.662 156.096 248.522 156.096C246.787 156.096 245.045 156.255 243.307 156.192C241.977 156.143 240.652 156 239.32 156C238.234 156 237.227 156.433 236.145 156.596C233.563 156.984 230.938 157.245 228.325 157.245C226.271 157.245 224.2 157.317 222.153 157.144C221.396 157.08 220.642 156.982 219.888 156.883C218.834 156.745 217.773 156.773 216.723 156.649C216.502 156.623 215.903 156.718 215.658 156.788C215.244 156.906 212.553 157.024 212.242 156.883" stroke="#CF1A1A" stroke-width="3" stroke-linecap="round"/>
<path d="M61.5104 205.602C61.5104 205.173 61.5193 204.768 61.3628 204.348C61.127 203.472 61.2881 202.624 61.3136 201.747C61.3786 199.512 61.5326 197.298 61.6142 195.061C61.699 192.737 62.1007 190.455 62.1007 188.127C62.1007 186.239 61.9367 184.343 62.0023 182.452C62.0526 181.004 62.1992 179.562 62.1992 178.113C62.1992 176.932 61.7539 175.836 61.5869 174.659C61.1882 171.849 62.1007 167.025 62.1007 164.182M61.552 205.602C61.9664 205.493 63.0777 204.798 63.4442 204.541C63.9962 204.153 64.6007 204.161 65.2193 204.025C66.7963 203.68 68.381 203.424 69.963 203.094C71.6069 202.752 73.3021 202.723 74.9275 202.298C76.2455 201.953 77.5275 201.448 78.8643 201.165C79.9527 200.936 79.7709 202.563 79.04 203.402C78.838 203.634 78.6847 203.828 78.6406 203.918C78.5504 204.103 78.2769 204.498 78.1331 204.598C77.4481 205.075 76.8636 205.67 76.1665 206.138C75.6682 206.472 75.1692 206.807 74.6937 207.169C73.4063 208.149 72.279 209.323 71.1108 210.435C69.6242 211.85 68.316 213.465 67.1217 215.151C66.6215 215.858 66.3554 216.726 65.7377 217.313C64.9801 218.034 64.1254 218.645 63.3338 219.329C62.2999 220.222 61.4218 221.284 60.4348 222.223C58.9898 223.598 57.4434 224.938 55.5635 225.605C55.3846 225.668 55.2468 225.706 55.1744 225.706C54.746 225.706 54.3404 225.697 53.9205 225.854C53.2882 226.089 52.7055 225.928 52.0728 225.903C50.4596 225.838 48.8619 225.684 47.248 225.602C45.5708 225.518 43.9237 225.116 42.2435 225.116C40.8811 225.116 39.513 225.28 38.1483 225.214C37.1034 225.164 36.9589 225.017 35.0173 225.017C34.6437 225.017 34.0783 224.85 33.4089 224.579C28.4062 222.554 25.7233 217.371 24.6821 212.075C24.2834 210.047 24.0152 207.986 24.0152 205.934C24.0152 204.322 23.9414 202.695 24.119 201.087C24.1846 200.493 24.2857 199.901 24.3869 199.309C24.5284 198.482 24.5003 197.648 24.6274 196.823C24.6541 196.65 24.5566 196.18 24.4847 195.987C24.3635 195.662 24.2424 193.549 24.3869 193.305M36.3117 197.848C36.3773 196.86 36.4784 195.873 36.5796 194.888C36.7211 193.51 36.6929 192.122 36.8201 190.749C36.8468 190.461 36.7493 189.678 36.6774 189.357C36.5562 188.816 36.435 185.298 36.5796 184.892M49.7661 179.701C49.7005 181.085 49.5994 182.466 49.4982 183.845C49.3567 185.773 49.3849 187.716 49.2577 189.637C49.231 190.041 49.3285 191.137 49.4004 191.586C49.5216 192.344 49.6428 197.267 49.4982 197.836M109.321 181.973C107.986 180.638 106.529 179.414 105.238 178.03C104.25 176.971 103.334 175.848 102.31 174.823C101.474 173.988 100.384 173.527 99.4341 172.813C97.1651 171.108 93.9805 166.974 91.9697 164.963M91.9697 164.963C91.9041 166.347 92.316 168.241 92.2148 169.62C92.0733 171.548 92.1014 173.491 91.9743 175.412C91.9476 175.815 92.0451 176.912 92.117 177.361C92.2382 178.118 92.3593 183.042 92.2148 183.61M91.9697 164.963C93.3538 165.029 94.7346 165.13 96.1133 165.231C98.0417 165.373 99.9844 165.345 101.906 165.472C102.309 165.498 103.405 165.401 103.855 165.329C104.612 165.208 109.536 165.087 110.104 165.231M64.2718 138.637C65.6068 139.972 67.0633 141.197 68.354 142.58C69.3423 143.64 70.2581 144.763 71.2827 145.787C72.1182 146.623 73.2082 147.083 74.1584 147.797C76.4274 149.502 79.6121 153.636 81.6228 155.647M81.6228 155.647C81.6884 154.263 81.2766 152.369 81.3777 150.991C81.5192 149.062 81.4911 147.119 81.6183 145.198C81.645 144.795 81.5474 143.699 81.4755 143.249C81.3544 142.492 81.2332 137.568 81.3777 137M81.6228 155.647C80.2387 155.581 78.8579 155.48 77.4793 155.379C75.5508 155.238 73.6081 155.266 71.6869 155.139C71.2836 155.112 70.1874 155.21 69.738 155.281C68.9805 155.403 64.0567 155.524 63.4886 155.379" stroke="#111010" stroke-width="2" stroke-linecap="round" stroke-linejoin="round"/>
</svg>
